public/logos/FO.svg

<?xml version="1.0" encoding="UTF-8"?>
<svg xmlns="http://www.w3.org/2000/svg" xmlns:xlink="http://www.w3.org/1999/xlink" width="176pt" height="34.35pt" viewBox="0 0 176 34.35" version="1.1">
<defs>
<clipPath id="clip1">
  <path d="M 20 6 L 39 6 L 39 34.351562 L 20 34.351562 Z M 20 6 "/>
</clipPath>
</defs>
<g id="surface1">
<path style=" stroke:none;fill-rule:nonzero;fill:rgb(97.795105%,72.064209%,4.56543%);fill-opacity:1;" d="M 11.714844 4.417969 C 10.230469 4.382812 8.792969 4.925781 7.707031 5.9375 C 6.621094 6.898438 6.015625 8.292969 6.054688 9.746094 L 6.054688 10.824219 L 9.585938 10.824219 L 9.585938 15.042969 L 6.042969 15.042969 L 6.042969 29.183594 L 1.785156 29.183594 L 1.785156 15.042969 L 0 15.042969 L 0 10.824219 L 1.785156 10.824219 L 1.785156 9.746094 C 1.761719 7.171875 2.851562 4.714844 4.769531 3.003906 C 6.625 1.1875 9.117188 0.171875 11.714844 0.171875 L 11.714844 4.417969 "/>
<path style=" stroke:none;fill-rule:nonzero;fill:rgb(97.795105%,72.064209%,4.56543%);fill-opacity:1;" d="M 14.054688 0.171875 L 18.3125 0.171875 L 18.3125 29.183594 L 14.054688 29.183594 L 14.054688 0.171875 "/>
<path style=" stroke:none;fill-rule:nonzero;fill:rgb(97.795105%,72.064209%,4.56543%);fill-opacity:1;" d="M 82.585938 18.238281 C 82.542969 14.34375 79.394531 11.199219 75.5 11.160156 C 71.59375 11.175781 68.429688 14.332031 68.402344 18.238281 C 68.402344 22.15625 71.578125 25.332031 75.496094 25.332031 C 79.410156 25.332031 82.585938 22.15625 82.585938 18.238281 Z M 86.84375 18.238281 C 86.820312 24.488281 81.746094 29.539062 75.5 29.539062 C 69.253906 29.554688 64.179688 24.503906 64.160156 18.261719 C 64.160156 18.253906 64.160156 18.25 64.160156 18.242188 C 64.117188 15.234375 65.320312 12.339844 67.484375 10.246094 C 71.867188 5.820312 79.007812 5.785156 83.433594 10.167969 C 83.460938 10.195312 83.488281 10.222656 83.515625 10.246094 C 85.679688 12.339844 86.882812 15.230469 86.84375 18.238281 "/>
<path style=" stroke:none;fill-rule:nonzero;fill:rgb(97.795105%,72.064209%,4.56543%);fill-opacity:1;" d="M 103.429688 16.476562 C 103.347656 13.542969 100.902344 11.226562 97.964844 11.308594 C 95.144531 11.386719 92.878906 13.65625 92.796875 16.476562 L 92.796875 29.183594 L 88.539062 29.183594 L 88.539062 16.476562 C 88.539062 13.945312 89.585938 11.523438 91.429688 9.789062 C 94.894531 6.101562 100.691406 5.921875 104.382812 9.386719 C 104.519531 9.519531 104.652344 9.652344 104.78125 9.789062 C 106.707031 11.714844 107.671875 13.945312 107.671875 16.476562 L 107.671875 29.183594 L 103.429688 29.183594 L 103.429688 16.476562 "/>
<path style=" stroke:none;fill-rule:nonzero;fill:rgb(97.795105%,72.064209%,4.56543%);fill-opacity:1;" d="M 127.800781 18.238281 C 127.757812 14.335938 124.597656 11.1875 120.695312 11.15625 C 116.792969 11.179688 113.636719 14.335938 113.613281 18.238281 C 113.613281 22.15625 116.785156 25.332031 120.703125 25.332031 C 124.621094 25.332031 127.796875 22.15625 127.796875 18.238281 Z M 132.058594 18.238281 C 132.03125 24.492188 126.949219 29.542969 120.699219 29.535156 C 114.453125 29.550781 109.378906 24.5 109.363281 18.257812 C 109.363281 18.25 109.363281 18.246094 109.363281 18.238281 C 109.3125 15.257812 110.464844 12.386719 112.558594 10.265625 C 116.625 5.957031 123.414062 5.757812 127.722656 9.824219 C 127.75 9.847656 127.773438 9.871094 127.800781 9.898438 L 127.800781 0.171875 L 132.058594 0.171875 L 132.058594 18.238281 "/>
<path style=" stroke:none;fill-rule:nonzero;fill:rgb(97.795105%,72.064209%,4.56543%);fill-opacity:1;" d="M 134.351562 7.257812 L 138.621094 7.257812 L 138.621094 29.183594 L 134.351562 29.183594 L 134.351562 7.257812 "/>
<g clip-path="url(#clip1)" clip-rule="nonzero">
<path style=" stroke:none;fill-rule:nonzero;fill:rgb(97.795105%,72.064209%,4.56543%);fill-opacity:1;" d="M 33.910156 6.9375 L 29.441406 18.222656 L 24.921875 6.9375 L 20.078125 6.9375 L 27.023438 24.640625 L 22.804688 34.351562 L 27.621094 34.351562 L 38.738281 6.9375 L 33.910156 6.9375 "/>
</g>
<path style=" stroke:none;fill-rule:nonzero;fill:rgb(97.795105%,72.064209%,4.56543%);fill-opacity:1;" d="M 136.480469 -0.00390625 C 137.679688 -0.00390625 138.648438 0.96875 138.648438 2.164062 C 138.648438 3.363281 137.679688 4.335938 136.480469 4.335938 C 135.28125 4.335938 134.3125 3.363281 134.3125 2.164062 C 134.3125 0.96875 135.28125 -0.00390625 136.480469 -0.00390625 "/>
<path style=" stroke:none;fill-rule:nonzero;fill:rgb(97.795105%,72.064209%,4.56543%);fill-opacity:1;" d="M 59.65625 10.308594 C 55.601562 5.992188 48.8125 5.777344 44.496094 9.832031 C 44.453125 9.875 44.410156 9.914062 44.367188 9.957031 L 44.367188 0.171875 L 40.089844 0.171875 L 40.089844 18.324219 C 40.070312 20.066406 40.460938 21.785156 41.226562 23.347656 L 43.585938 23.714844 C 43.664062 23.726562 43.742188 23.714844 43.808594 23.675781 C 44.609375 23.0625 46.699219 21.683594 47.488281 21.070312 C 47.488281 21.070312 47.488281 21.070312 47.488281 21.015625 C 47.273438 20.949219 45.878906 20.070312 43.441406 18.636719 C 42.949219 18.34375 42.871094 18.324219 43.332031 17.902344 C 43.59375 17.65625 43.871094 17.425781 44.128906 17.175781 C 44.390625 16.914062 44.742188 16.765625 45.113281 16.761719 C 46.402344 16.71875 49.792969 17.964844 51.160156 17.917969 C 51.359375 17.902344 51.546875 17.828125 51.699219 17.703125 C 52.714844 17.101562 54.808594 15.890625 55.921875 15.351562 C 56.847656 14.902344 59.125 13.671875 60.046875 14.9375 C 60.304688 15.300781 60.957031 16.21875 58.351562 18.074219 C 57.320312 18.960938 45.769531 25.597656 43.832031 26.738281 C 48.324219 30.8125 55.21875 30.664062 59.53125 26.398438 C 61.714844 24.296875 62.933594 21.386719 62.894531 18.359375 C 62.929688 15.351562 61.765625 12.457031 59.65625 10.308594 "/>
<path style=" stroke:none;fill-rule:nonzero;fill:rgb(97.795105%,72.064209%,4.56543%);fill-opacity:1;" d="M 141.671875 27.230469 C 142.308594 27.230469 142.820312 27.742188 142.820312 28.378906 C 142.820312 29.015625 142.308594 29.53125 141.671875 29.53125 C 141.035156 29.53125 140.519531 29.015625 140.519531 28.378906 C 140.519531 27.742188 141.035156 27.230469 141.671875 27.230469 "/>
<path style=" stroke:none;fill-rule:nonzero;fill:rgb(97.795105%,72.064209%,4.56543%);fill-opacity:1;" d="M 148.65625 29.558594 C 146.101562 29.558594 144.03125 27.488281 144.03125 24.933594 C 144.03125 23.710938 144.519531 22.535156 145.382812 21.667969 C 147.195312 19.863281 150.125 19.863281 151.9375 21.667969 L 152.058594 21.785156 L 150.710938 23.136719 L 150.585938 23.015625 C 150.078125 22.496094 149.378906 22.207031 148.652344 22.21875 C 147.152344 22.21875 145.9375 23.4375 145.9375 24.933594 C 145.9375 26.433594 147.152344 27.648438 148.652344 27.648438 C 149.378906 27.664062 150.078125 27.375 150.585938 26.855469 L 150.699219 26.734375 L 152.050781 28.085938 L 151.929688 28.207031 C 151.070312 29.085938 149.886719 29.578125 148.65625 29.558594 "/>
<path style=" stroke:none;fill-rule:nonzero;fill:rgb(97.795105%,72.064209%,4.56543%);fill-opacity:1;" d="M 156.996094 22.21875 C 155.5 22.222656 154.289062 23.4375 154.289062 24.933594 C 154.292969 26.429688 155.507812 27.644531 157.003906 27.640625 C 158.5 27.640625 159.714844 26.425781 159.710938 24.925781 C 159.710938 24.210938 159.425781 23.523438 158.921875 23.015625 C 158.417969 22.496094 157.722656 22.207031 156.996094 22.21875 Z M 156.996094 29.558594 C 154.441406 29.558594 152.375 27.484375 152.378906 24.929688 C 152.378906 23.707031 152.863281 22.535156 153.730469 21.667969 C 155.496094 19.824219 158.425781 19.765625 160.269531 21.535156 C 162.109375 23.300781 162.171875 26.230469 160.402344 28.074219 C 160.359375 28.117188 160.3125 28.164062 160.269531 28.207031 C 159.410156 29.089844 158.226562 29.578125 156.996094 29.558594 "/>
<path style=" stroke:none;fill-rule:nonzero;fill:rgb(97.795105%,72.064209%,4.56543%);fill-opacity:1;" d="M 174.101562 29.082031 L 174.101562 24.171875 C 174.101562 23.09375 173.230469 22.21875 172.148438 22.21875 C 171.632812 22.210938 171.136719 22.417969 170.78125 22.792969 C 170.410156 23.15625 170.207031 23.65625 170.214844 24.171875 L 170.214844 29.082031 L 168.285156 29.082031 L 168.285156 24.171875 C 168.296875 23.65625 168.089844 23.15625 167.71875 22.792969 C 167.363281 22.417969 166.867188 22.210938 166.351562 22.21875 C 165.832031 22.214844 165.332031 22.421875 164.972656 22.792969 C 164.597656 23.152344 164.390625 23.652344 164.402344 24.171875 L 164.402344 29.082031 L 162.492188 29.082031 L 162.492188 24.171875 C 162.488281 22.042969 164.210938 20.316406 166.339844 20.3125 C 166.933594 20.308594 167.519531 20.445312 168.054688 20.710938 C 168.429688 20.902344 168.773438 21.152344 169.074219 21.449219 L 169.242188 21.621094 L 169.410156 21.449219 C 169.710938 21.152344 170.058594 20.902344 170.433594 20.714844 C 172.347656 19.773438 174.664062 20.5625 175.605469 22.476562 C 175.863281 23.003906 176 23.585938 176 24.171875 L 176 29.082031 L 174.101562 29.082031 "/>
</g>
</svg>

<svg xmlns="http://www.w3.org/2000/svg" width="176pt" height="45.8" viewBox="0 0 176 34.35"><defs><clipPath id="a"><path d="M20 6h19v28.352H20Zm0 0"/></clipPath></defs><path d="M11.715 4.418a5.68 5.68 0 0 0-4.008 1.52 4.9 4.9 0 0 0-1.652 3.808v1.078h3.53v4.219H6.044v14.14H1.785v-14.14H0v-4.219h1.785V9.746A8.93 8.93 0 0 1 4.77 3.004 9.93 9.93 0 0 1 11.715.172zM14.055.172h4.258v29.012h-4.258zM82.586 18.238A7.157 7.157 0 0 0 75.5 11.16a7.126 7.126 0 0 0-7.098 7.078 7.093 7.093 0 1 0 14.184 0m4.258 0C86.82 24.488 81.746 29.54 75.5 29.54c-6.246.016-11.32-5.035-11.34-11.277v-.02a10.91 10.91 0 0 1 3.324-7.996c4.383-4.426 11.524-4.46 15.95-.078q.04.042.082.078a10.92 10.92 0 0 1 3.328 7.992M103.43 16.477a5.32 5.32 0 0 0-10.633 0v12.707h-4.258V16.477a9.19 9.19 0 0 1 2.89-6.688c3.466-3.687 9.262-3.867 12.954-.402q.206.198.398.402 2.89 2.89 2.89 6.688v12.707h-4.241zM127.8 18.238a7.16 7.16 0 0 0-7.105-7.082 7.124 7.124 0 0 0-7.082 7.082 7.09 7.09 0 0 0 7.09 7.094 7.093 7.093 0 0 0 7.094-7.094Zm4.259 0c-.028 6.254-5.11 11.305-11.36 11.297-6.246.016-11.32-5.035-11.336-11.277v-.02a11.08 11.08 0 0 1 3.196-7.972c4.066-4.309 10.855-4.508 15.164-.442.027.024.05.047.078.074V.172h4.258zM134.352 7.258h4.27v21.926h-4.27z" style="stroke:none;fill-rule:nonzero;fill:#f9b80c;fill-opacity:1"/><g clip-path="url(#a)"><path d="m33.91 6.938-4.469 11.285-4.52-11.285h-4.843l6.945 17.703-4.218 9.71h4.816L38.738 6.939z" style="stroke:none;fill-rule:nonzero;fill:#f9b80c;fill-opacity:1"/></g><path d="M136.48-.004c1.2 0 2.168.973 2.168 2.168a2.169 2.169 0 1 1-2.168-2.168M59.656 10.309c-4.054-4.317-10.843-4.532-15.16-.477l-.129.125V.172H40.09v18.152a11.1 11.1 0 0 0 1.137 5.024l2.359.367c.078.012.156 0 .223-.04.8-.613 2.89-1.991 3.68-2.605v-.054c-.216-.067-1.61-.946-4.048-2.38-.492-.292-.57-.312-.109-.734.262-.246.54-.476.797-.726a1.4 1.4 0 0 1 .984-.414c1.29-.043 4.68 1.203 6.047 1.156.2-.016.387-.09.54-.215 1.015-.601 3.109-1.812 4.222-2.351.926-.45 3.203-1.68 4.125-.415.258.364.91 1.282-1.695 3.137-1.032.887-12.582 7.524-14.52 8.664a11.417 11.417 0 0 0 15.7-.34 10.96 10.96 0 0 0 3.363-8.039 11.3 11.3 0 0 0-3.239-8.05M141.672 27.23c.637 0 1.148.512 1.148 1.149s-.511 1.152-1.148 1.152a1.15 1.15 0 0 1-1.152-1.152c0-.637.515-1.149 1.152-1.149M148.656 29.559a4.625 4.625 0 0 1-3.273-7.891 4.645 4.645 0 0 1 6.554 0l.122.117-1.348 1.352-.125-.121a2.65 2.65 0 0 0-1.934-.797 2.714 2.714 0 1 0 0 5.43 2.63 2.63 0 0 0 1.934-.794l.113-.12 1.352 1.35-.121.122a4.48 4.48 0 0 1-3.274 1.352M156.996 22.219a2.715 2.715 0 0 0-2.707 2.715 2.71 2.71 0 0 0 2.715 2.707 2.707 2.707 0 0 0 2.707-2.715c0-.715-.285-1.403-.79-1.91a2.62 2.62 0 0 0-1.925-.797m0 7.34a4.62 4.62 0 0 1-4.617-4.63 4.6 4.6 0 0 1 1.351-3.261 4.623 4.623 0 0 1 6.54-.133 4.627 4.627 0 0 1 .132 6.54l-.132.132a4.47 4.47 0 0 1-3.274 1.352M174.102 29.082v-4.91a1.95 1.95 0 0 0-1.954-1.953 1.84 1.84 0 0 0-1.367.574 1.9 1.9 0 0 0-.566 1.379v4.91h-1.93v-4.91a1.88 1.88 0 0 0-.566-1.379 1.84 1.84 0 0 0-1.367-.574 1.9 1.9 0 0 0-1.38.574c-.374.36-.581.86-.57 1.379v4.91h-1.91v-4.91a3.853 3.853 0 0 1 5.563-3.461 4.1 4.1 0 0 1 1.02.738l.167.172.168-.172c.3-.297.649-.547 1.024-.734a3.864 3.864 0 0 1 5.171 1.762 3.9 3.9 0 0 1 .395 1.695v4.91z" style="stroke:none;fill-rule:nonzero;fill:#f9b80c;fill-opacity:1"/></svg>
